build/documents/DocSignSolid.svg

<svg xmlns="http://www.w3.org/2000/svg" fill="none" viewBox="0 0 24 24" focusable="false"><path d="M0 0H24V24H0z"/><path fill="#74767B" fill-rule="evenodd" d="M7 3C5.34315 3 4 4.34315 4 6L4 18C4 19.6569 5.34315 21 7 21L17 21C18.6569 21 20 19.6569 20 18L20 6C20 4.34315 18.6569 3 17 3L7 3ZM9.29937 13.1622C9.57118 12.6059 9.80385 12.0582 9.92037 11.5685C10.0537 11.0081 10.091 10.2704 9.51912 9.77361C9.00447 9.3265 8.21109 9.28689 7.32929 9.41063C6.97378 9.46052 6.72603 9.78915 6.77592 10.1446C6.8258 10.5002 7.15444 10.7479 7.50994 10.698C8.35712 10.5791 8.61881 10.7135 8.66653 10.755L8.66735 10.7557C8.67293 10.7603 8.68872 10.7734 8.69819 10.8374C8.71031 10.9194 8.70577 11.0571 8.65569 11.2675C8.5544 11.6932 8.31034 12.2471 7.97006 12.9139C7.77853 13.2892 7.57664 13.6629 7.36678 14.0515C7.19724 14.3653 7.02245 14.6889 6.84361 15.031C6.70374 15.2984 6.76641 15.627 6.99492 15.8242C7.22343 16.0215 7.55764 16.0354 7.8018 15.8579L11.0109 13.5252L11.5649 14.4854C11.9128 15.0883 12.7696 15.1247 13.1674 14.5534L14.0951 13.2212C14.6823 12.3779 15.8892 12.2707 16.6159 12.9973L16.653 13.0344C16.9068 13.2883 17.3184 13.2883 17.5722 13.0344C17.826 12.7806 17.826 12.369 17.5722 12.1152L17.5351 12.0781C16.236 10.779 14.0782 10.9706 13.0283 12.4783L12.4155 13.3583L11.9425 12.5386C11.6605 12.05 11.0174 11.9133 10.5611 12.245L9.29937 13.1622Z"/></svg>

<svg xmlns="http://www.w3.org/2000/svg" fill="none" viewBox="0 0 24 24" focusable="false"><path fill="#74767B" fill-rule="evenodd" d="M7 3C5.34 3 4 4.34 4 6v12c0 1.65 1.34 3 3 3h10c1.65 0 3-1.35 3-3V6c0-1.66-1.35-3-3-3zm2.29 10.16c.28-.56.51-1.11.63-1.6.13-.56.17-1.29-.41-1.79-.51-.45-1.3-.49-2.19-.36a.648.648 0 1 0 .19 1.28c.84-.12 1.1.02 1.15.06.01.01.02.02.03.08.02.08.01.22-.04.43-.1.43-.34.98-.69 1.65q-.285.555-.6 1.14c-.17.31-.34.63-.52.98a.647.647 0 0 0 .96.82l3.21-2.33.55.96c.35.6 1.2.64 1.6.07l.93-1.33a1.65 1.65 0 0 1 2.52-.23l.04.04c.25.25.66.25.92 0 .25-.25.25-.67 0-.92l-.04-.04c-1.3-1.3-3.46-1.1-4.51.4l-.61.88-.47-.82a.956.956 0 0 0-1.38-.29z"/></svg>
